X: 19521
T: Jakes On A Plane
R: reel
M: 4/4
K: Eminor
|:DEBd B2 AB|deed B2 AG|GAAB AGEc-|cAB/A/G ABFD|DEBd B2 AB|
deed B2 AG|1 GAAB AGEF-|FAB/A/G FEDB:|2 GAAB AGEB|cEB/c/d fcd/e/f||
|:gedB cdB/A/G|E2 ED EFG/A/B|cEAc BDGB|cec/B/A BEdf|
gedB cdB/A/G|E2 ED EFG/A/B|cBAB- BAGB|1 cecA BEEf:|2 cBAc BGFD||

